contributed-vectors/shader_editor.svg

<?xml version="1.0" encoding="UTF-8" standalone="no"?>
<svg
   xmlns:dc="http://purl.org/dc/elements/1.1/"
   xmlns:cc="http://creativecommons.org/ns#"
   xmlns:rdf="http://www.w3.org/1999/02/22-rdf-syntax-ns#"
   xmlns:svg="http://www.w3.org/2000/svg"
   xmlns="http://www.w3.org/2000/svg"
   xmlns:sodipodi="http://sodipodi.sourceforge.net/DTD/sodipodi-0.dtd"
   xmlns:inkscape="http://www.inkscape.org/namespaces/inkscape"
   viewBox="0 0 192 192"
   version="1.1"
   id="svg16"
   sodipodi:docname="shader_editor.svg"
   inkscape:version="0.92.4 (5da689c313, 2019-01-14)">
  <metadata
     id="metadata20">
    <rdf:RDF>
      <cc:Work
         rdf:about="">
        <dc:format>image/svg+xml</dc:format>
        <dc:type
           rdf:resource="http://purl.org/dc/dcmitype/StillImage" />
        <dc:title />
      </cc:Work>
    </rdf:RDF>
  </metadata>
  <sodipodi:namedview
     pagecolor="#ffffff"
     bordercolor="#666666"
     borderopacity="1"
     objecttolerance="10"
     gridtolerance="10"
     guidetolerance="10"
     inkscape:pageopacity="0"
     inkscape:pageshadow="2"
     inkscape:window-width="1920"
     inkscape:window-height="1017"
     id="namedview18"
     showgrid="true"
     inkscape:zoom="4.9166667"
     inkscape:cx="69.881289"
     inkscape:cy="94.983053"
     inkscape:window-x="-8"
     inkscape:window-y="-8"
     inkscape:window-maximized="1"
     inkscape:current-layer="svg16">
    <inkscape:grid
       type="xygrid"
       id="grid827"
       spacingx="4"
       spacingy="4" />
  </sodipodi:namedview>
  <defs
     id="defs4">
    <style
       id="style2">.a{fill:none;stroke:#b1b5bd;stroke-linecap:round;stroke-linejoin:round;isolation:isolate;opacity:0.63;}</style>
  </defs>
  <rect
     class="a"
     x="20"
     y="24"
     width="152"
     height="148"
     rx="10"
     id="rect6"
     style="opacity:1;isolation:isolate;fill:#56595b;stroke:none;stroke-linecap:round;stroke-linejoin:round" />
  <path
     inkscape:connector-curvature="0"
     id="path821"
     style="font-style:normal;font-variant:normal;font-weight:normal;font-stretch:normal;font-size:26.60938454px;line-height:1.25;font-family:Now;-inkscape-font-specification:Now;letter-spacing:0px;word-spacing:0px;fill:#9abeff;fill-opacity:1;stroke:none;stroke-width:0.66523463"
     d="m 70.614522,82.796931 -3.492482,9.878734 -3.45922,-9.878734 h -3.359434 l 5.321877,13.304693 h 2.993555 l 5.355139,-13.304693 z" />
  <path
     inkscape:connector-curvature="0"
     id="path823"
     style="font-style:normal;font-variant:normal;font-weight:normal;font-stretch:normal;font-size:26.60938454px;line-height:1.25;font-family:Now;-inkscape-font-specification:Now;letter-spacing:0px;word-spacing:0px;fill:#9abeff;fill-opacity:1;stroke:none;stroke-width:0.66523463"
     d="m 89.46145,89.382754 c -0.06652,-3.991408 -2.993556,-6.851917 -7.018225,-6.851917 -4.057931,0 -7.11801,2.927033 -7.11801,6.91844 0,3.991408 3.026817,6.91844 7.151272,6.91844 3.425958,0 5.987111,-2.028965 6.752131,-4.922736 h -3.159864 c -0.56545,1.396993 -1.895919,2.29506 -3.592267,2.29506 -2.228536,0 -3.791838,-1.563302 -3.958146,-3.791838 h 10.909847 z m -6.984963,-4.190978 c 1.72961,0 2.960294,0.96459 3.525743,2.49463 h -7.217795 c 0.598711,-1.496778 1.895918,-2.49463 3.692052,-2.49463 z" />
  <path
     inkscape:connector-curvature="0"
     id="path825"
     style="font-style:normal;font-variant:normal;font-weight:normal;font-stretch:normal;font-size:26.60938454px;line-height:1.25;font-family:Now;-inkscape-font-specification:Now;letter-spacing:0px;word-spacing:0px;fill:#9abeff;fill-opacity:1;stroke:none;stroke-width:0.66523463"
     d="m 99.055381,96.367717 c 3.525739,0 6.186679,-2.162012 6.918439,-5.222091 h -3.29291 c -0.63197,1.363731 -1.9957,2.295059 -3.625529,2.295059 -2.228536,0 -3.991407,-1.72961 -3.991407,-3.991408 0,-2.261797 1.762871,-3.991407 3.991407,-3.991407 1.629829,0 2.993559,0.931328 3.625529,2.295059 h 3.29291 c -0.73176,-3.060079 -3.3927,-5.222092 -6.918439,-5.222092 -4.124454,0 -7.151272,3.026818 -7.151272,6.91844 0,3.891623 3.026818,6.91844 7.151272,6.91844 z" />
  <path
     inkscape:connector-curvature="0"
     id="path827"
     style="font-style:normal;font-variant:normal;font-weight:normal;font-stretch:normal;font-size:26.60938454px;line-height:1.25;font-family:Now;-inkscape-font-specification:Now;letter-spacing:0px;word-spacing:0px;fill:#9abeff;fill-opacity:1;stroke:none;stroke-width:0.66523463"
     d="m 114.6676,84.260447 6.38626,-8.115862 h -12.70598 v 2.960294 h 6.98496 l -5.95385,7.749983 h 0.0998 5.28862 c 1.82939,0 3.25965,1.230684 3.25965,3.093341 0,1.895919 -1.39699,3.359435 -3.29291,3.359435 -1.69635,0 -3.15987,-1.197422 -3.15987,-2.760723 l -3.22638,0.03326 c 0,3.226388 2.8605,5.787541 6.35299,5.787541 3.69205,0 6.48603,-2.827247 6.48603,-6.286467 0,-3.65879 -2.89377,-5.95385 -6.5193,-5.820803 z" />
  <path
     inkscape:connector-curvature="0"
     id="path829"
     style="font-style:normal;font-variant:normal;font-weight:500;font-stretch:normal;font-size:26.60938454px;line-height:1.25;font-family:Now;-inkscape-font-specification:'Now Medium';letter-spacing:0px;word-spacing:0px;fill:#ffffff;fill-opacity:1;stroke:none;stroke-width:0.66523463"
     d="m 132.64973,103.98465 v -2.26179 c -2.72746,-0.19957 -4.85621,-3.75858 -4.85621,-13.670575 0,-9.978519 2.12875,-13.537525 4.85621,-13.737095 v -2.261798 c -4.29076,0.166309 -7.61694,4.42381 -7.61694,15.998893 0,11.575082 3.32618,15.766065 7.61694,15.932365 z" />
  <path
     inkscape:connector-curvature="0"
     id="path831"
     style="font-style:normal;font-variant:normal;font-weight:normal;font-stretch:normal;font-size:26.60938454px;line-height:1.25;font-family:Now;-inkscape-font-specification:Now;letter-spacing:0px;word-spacing:0px;fill:#98dc9a;fill-opacity:1;stroke:none;stroke-width:0.66523463"
     d="m 76,129.52831 h 3.193126 v -19.95704 h -6.386252 v 2.9603 H 76 Z" />
  <path
     inkscape:connector-curvature="0"
     id="path833"
     style="font-style:normal;font-variant:normal;font-weight:normal;font-stretch:normal;font-size:26.60938454px;line-height:1.25;font-family:Now;-inkscape-font-specification:Now;letter-spacing:0px;word-spacing:0px;fill:#98dc9a;fill-opacity:1;stroke:none;stroke-width:0.66523463"
     d="m 86.155222,129.7944 c 1.16416,0 2.162012,-0.99785 2.162012,-2.16201 0,-1.16416 -0.997852,-2.16201 -2.162012,-2.16201 -1.164161,0 -2.162013,0.99785 -2.162013,2.16201 0,1.16416 0.997852,2.16201 2.162013,2.16201 z" />
  <path
     inkscape:connector-curvature="0"
     id="path835"
     style="font-style:normal;font-variant:normal;font-weight:500;font-stretch:normal;font-size:26.60938454px;line-height:1.25;font-family:Now;-inkscape-font-specification:'Now Medium';letter-spacing:0px;word-spacing:0px;fill:#ffffff;fill-opacity:1;stroke:none;stroke-width:0.66523463"
     d="m 93.059111,133.51972 h 1.995704 v -23.94845 h -1.995704 z" />
  <path
     style="fill:#9abeff;stroke:none;stroke-width:1px;stroke-linecap:butt;stroke-linejoin:miter;stroke-opacity:1"
     d="M 30 20 C 24.46 20 20 24.46 20 30 L 20 76 L 172 44 L 172 30 C 172 24.46 167.54 20 162 20 L 30 20 z "
     id="path824" />
  <path
     style="opacity:1;vector-effect:none;fill:#728dbe;fill-opacity:1;fill-rule:evenodd;stroke:none;stroke-width:0.66666669;paint-order:stroke fill markers"
     d="M 30 20 C 24.46 20 20 24.46 20 30 L 20 36 L 36 36 L 36 20 L 30 20 z M 36 36 L 36 52 L 52 52 L 52 36 L 36 36 z M 52 36 L 68 36 L 68 20 L 52 20 L 52 36 z M 68 36 L 68 52 L 84 52 L 84 36 L 68 36 z M 84 36 L 100 36 L 100 20 L 84 20 L 84 36 z M 100 36 L 100 52 L 116 52 L 116 36 L 100 36 z M 116 36 L 132 36 L 132 20 L 116 20 L 116 36 z M 132 36 L 132 52 L 134 52 L 148 49.052734 L 148 36 L 132 36 z M 148 36 L 164 36 L 164 20.199219 C 163.35384 20.068995 162.68565 20 162 20 L 148 20 L 148 36 z M 164 36 L 164 45.683594 L 172 44 L 172 36 L 164 36 z M 132 52 L 116 52 L 116 55.789062 L 132 52.421875 L 132 52 z M 100 52 L 84 52 L 84 62.525391 L 100 59.158203 L 100 52 z M 68 52 L 52 52 L 52 68 L 58 68 L 68 65.894531 L 68 52 z M 52 68 L 36 68 L 36 72.630859 L 52 69.263672 L 52 68 z M 36 68 L 36 52 L 20 52 L 20 68 L 36 68 z "
     id="rect826" />
</svg>

<svg xmlns="http://www.w3.org/2000/svg" viewBox="0 0 192 192"><rect width="152" height="148" x="20" y="24" rx="10" style="opacity:1;isolation:isolate;fill:#56595b;stroke:none;stroke-linecap:round;stroke-linejoin:round"/><path d="m70.615 82.797-3.493 9.879-3.46-9.88h-3.359l5.322 13.306h2.994l5.355-13.305zM89.461 89.383c-.066-3.992-2.993-6.852-7.018-6.852-4.058 0-7.118 2.927-7.118 6.918 0 3.992 3.027 6.919 7.151 6.919 3.426 0 5.988-2.03 6.753-4.923h-3.16c-.566 1.397-1.896 2.295-3.593 2.295-2.228 0-3.791-1.563-3.958-3.792h10.91zm-6.985-4.191c1.73 0 2.96.964 3.526 2.494h-7.218c.6-1.496 1.896-2.494 3.692-2.494zM99.055 96.368c3.526 0 6.187-2.162 6.919-5.222h-3.293a3.955 3.955 0 0 1-3.626 2.295c-2.228 0-3.991-1.73-3.991-3.992s1.763-3.991 3.991-3.991c1.63 0 2.994.931 3.626 2.295h3.293c-.732-3.06-3.393-5.222-6.919-5.222-4.124 0-7.15 3.027-7.15 6.918 0 3.892 3.026 6.919 7.15 6.919zM114.668 84.26l6.386-8.115h-12.706v2.96h6.985l-5.954 7.75h5.388c1.83 0 3.26 1.23 3.26 3.093 0 1.896-1.397 3.36-3.293 3.36-1.696 0-3.16-1.198-3.16-2.761l-3.226.033c0 3.227 2.86 5.788 6.353 5.788 3.692 0 6.486-2.828 6.486-6.287 0-3.659-2.894-5.954-6.52-5.82z" style="font-style:normal;font-variant:normal;font-weight:400;font-stretch:normal;font-size:26.60938454px;line-height:1.25;font-family:Now;-inkscape-font-specification:Now;letter-spacing:0;word-spacing:0;fill:#9abeff;fill-opacity:1;stroke:none;stroke-width:.66523463"/><path d="M132.65 103.985v-2.262c-2.728-.2-4.856-3.759-4.856-13.67 0-9.98 2.128-13.538 4.856-13.738v-2.262c-4.291.167-7.617 4.424-7.617 16 0 11.574 3.326 15.765 7.617 15.932z" style="font-style:normal;font-variant:normal;font-weight:500;font-stretch:normal;font-size:26.60938454px;line-height:1.25;font-family:Now;-inkscape-font-specification:&quot;Now Medium&quot;;letter-spacing:0;word-spacing:0;fill:#fff;fill-opacity:1;stroke:none;stroke-width:.66523463"/><path d="M76 129.528h3.193v-19.957h-6.386v2.96H76ZM86.155 129.794c1.164 0 2.162-.997 2.162-2.162 0-1.164-.998-2.162-2.162-2.162s-2.162.998-2.162 2.162c0 1.165.998 2.162 2.162 2.162z" style="font-style:normal;font-variant:normal;font-weight:400;font-stretch:normal;font-size:26.60938454px;line-height:1.25;font-family:Now;-inkscape-font-specification:Now;letter-spacing:0;word-spacing:0;fill:#98dc9a;fill-opacity:1;stroke:none;stroke-width:.66523463"/><path d="M93.06 133.52h1.995V109.57h-1.996z" style="font-style:normal;font-variant:normal;font-weight:500;font-stretch:normal;font-size:26.60938454px;line-height:1.25;font-family:Now;-inkscape-font-specification:&quot;Now Medium&quot;;letter-spacing:0;word-spacing:0;fill:#fff;fill-opacity:1;stroke:none;stroke-width:.66523463"/><path d="M30 20c-5.54 0-10 4.46-10 10v46l152-32V30c0-5.54-4.46-10-10-10H30z" style="fill:#9abeff;stroke:none;stroke-width:1px;stroke-linecap:butt;stroke-linejoin:miter;stroke-opacity:1"/><path d="M30 20c-5.54 0-10 4.46-10 10v6h16V20h-6zm6 16v16h16V36H36zm16 0h16V20H52v16zm16 0v16h16V36H68zm16 0h16V20H84v16zm16 0v16h16V36h-16zm16 0h16V20h-16v16zm16 0v16h2l14-2.947V36h-16zm16 0h16V20.2a10.11 10.11 0 0 0-2-.2h-14v16zm16 0v9.684L172 44v-8h-8zm-32 16h-16v3.79l16-3.368V52zm-32 0H84v10.525l16-3.367V52zm-32 0H52v16h6l10-2.105V52zM52 68H36v4.63l16-3.366V68zm-16 0V52H20v16h16z" style="opacity:1;vector-effect:none;fill:#728dbe;fill-opacity:1;fill-rule:evenodd;stroke:none;stroke-width:.66666669;paint-order:stroke fill markers"/></svg>
